X:15
T:Faithfull Swain. Ru2.015, The
%%VWML:RutherfordVol2-2249-p8-0
F:http://www.vwml.org/record/RutherfordVol2/2249/p8
B:RUTHERFORD Complete Collection of 200 Country Dances Vol.2; 1759.
Z:vmp.Mike Hicken 2015 www.village-music-project.org.uk
M:C|
Q:1/4=140
K:G
c|BGGB cAAf|gbag aAAc|BGcA dBge|dgdc BGG :|
|: c|BGDG BGdG|BgdB cAAc|Bdce dfeg|fdef gGG :|
|:f|gdBG DGBd|gefg aAAf|gfed edcB|cAdc BGG :|
W:
W: The first Wo: cast off behind the 2d  her partner
W: follow her and turn in the 2d Cu: place .|  the
W: same back round the 2d Man and turn in your own
W: places :|  set all 4 and change sides .|.  the
W: same back again :|.  cross over half figure .|:
W: right and left :|
T:Preaching Quaker. Ru2.016, The
L:1/8
B:RUTHERFORD Complete Collection of 200 Country Dances Vol.2; 1759.
Z:vmp.Mike Hicken 2015 www.village-music-project.org.uk
M:6/8
Q:3/8=110
K:Fm  %F aeolian
F2G A2B|cdc B2d|cGE (C2D)|(C2D) (C2D)|
F2G A2B|cdc Bcd|cAF BG=E|{E}F3-F3 :|
|: g2a f2g|e2f d3|cGE C3|cGE C3|
(D2=D E2=E|F2^F) d3|cAF BG=E|F3-F3 :|
W:
W: First Man set to the 2d Wo: stand still look down
W: and Groan step back and turn round in his own
W: place .|  his partner does the same :|  lead down
W: the middle and turn Back to Back below the 3d Cu:
W: .|.  up again Back to Back at top and cast off :|.
